; generated by PrusaSlicer 2.7.0+win64 on 2025-10-29 at 17:16:45 UTC

;

; external perimeters extrusion width = 0.50mm
; perimeters extrusion width = 0.50mm
; infill extrusion width = 0.50mm
; solid infill extrusion width = 0.50mm
; top infill extrusion width = 0.50mm
; first layer extrusion width = 0.50mm

M201 X2500 Y2500 Z200 E2500 ; sets maximum accelerations, mm/sec^2
M203 X20 Y20 Z20 E60 ; sets maximum feedrates, mm / sec
M204 P2000 R1200 T2000 ; sets acceleration (P, T) and retract acceleration (R), mm/sec^2
M205 X8.00 Y8.00 Z2.00 E10.00 ; sets the jerk limits, mm/sec
M205 S0 T0 ; sets the minimum extruding and travel feed rate, mm/sec

; printing object low-poly-rose-vase.stl id:0 copy 0
; stop printing object low-poly-rose-vase.stl id:0 copy 0

;TYPE:Custom
G90 ; use absolute coordinates
M83 ; extruder relative mode
M104 S150 ; set temporary nozzle temp to prevent oozing during homing and auto bed leveling
M140 S60 ; set final bed temp
G4 S30 ; allow partial nozzle warmup
G28 ; home all axis
G29 ; auto bed levelling
G1 Z50 F240
G4 S1
M400
G1 X2.0 Y10 F3000
G4 S1
M400
M104 S215 ; set final nozzle temp
M190 S60 ; wait for bed temp to stabilize
M109 S215 ; wait for nozzle temp to stabilize
G1 Z0.28 F240
G4 S1
M400
G92 E0
G1 X2.0 Y140 E10 F1500 ; prime the nozzle
G4 S1
M400
G1 X2.3 Y140 F5000
G4 S1
M400
G92 E0
G1 X2.3 Y10 E10 F1200 ; prime the nozzle
G4 S1
M400
G92 E0
M154 S1 ; turn on auto position updates
G21 ; set units to millimeters
G90 ; use absolute coordinates
M83 ; use relative distances for extrusion
; Filament gcode
M107
;LAYER_CHANGE
;Z:0.4
;HEIGHT:0.4
;BEFORE_LAYER_CHANGE
G92 E0
;0.4


G1 Z.4 F600
G4 S1
M400
;AFTER_LAYER_CHANGE
;0.4
G1 E-5 F3600
G4 S1
M400
G1 X100.129 Y100.437 F600
G4 S1
M400
G1 Z.4
G4 S1
M400
G1 E5 F2400
G4 S1
M400
M204 P600
;TYPE:Skirt/Brim
;WIDTH:0.5
G1 F600
G4 S1
M400
G1 X101.702 Y99.117 E.14143
G4 S1
M400
G1 X112.473 Y94.656 E.80296
G4 S1
M400
G1 X115.282 Y93.98 E.19899
G4 S1
M400
G1 X117.327 Y94.159 E.14139
G4 S1
M400
G1 X128.099 Y98.62 E.80303
G4 S1
M400
G1 X130.563 Y100.129 E.199
G4 S1
M400
G1 X131.883 Y101.702 E.14143
G4 S1
M400
G1 X136.344 Y112.473 E.80296
G4 S1
M400
G1 X137.02 Y115.282 E.19899
G4 S1
M400
G1 X136.841 Y117.327 E.14139
G4 S1
M400
G1 X132.38 Y128.099 E.80303
G4 S1
M400
G1 X130.871 Y130.563 E.199
G4 S1
M400
G1 X129.298 Y131.883 E.14143
G4 S1
M400
G1 X118.527 Y136.344 E.80296
G4 S1
M400
G1 X115.718 Y137.02 E.19899
G4 S1
M400
G1 X113.673 Y136.841 E.14139
G4 S1
M400
G1 X102.901 Y132.38 E.80303
G4 S1
M400
G1 X100.437 Y130.871 E.199
G4 S1
M400
G1 X99.117 Y129.298 E.14143
G4 S1
M400
G1 X94.656 Y118.527 E.80296
G4 S1
M400
G1 X93.98 Y115.718 E.19899
G4 S1
M400
G1 X94.159 Y113.673 E.14139
G4 S1
M400
G1 X98.62 Y102.901 E.80303
G4 S1
M400
G1 X100.097 Y100.488 E.19486
G4 S1
M400
M204 P1000
; printing object low-poly-rose-vase.stl id:0 copy 0
G1 E-3.5 F3600
G4 S1
M400
;WIPE_START
G1 F480
G4 S1
M400
G1 X100.129 Y100.437 E-.42898
G4 S1
M400
G1 X100.244 Y100.34 E-1.07102
G4 S1
M400
;WIPE_END
G1 X103.124 Y102.924 F600
G4 S1
M400
G1 E5 F2400
G4 S1
M400
M204 P600
;TYPE:External perimeter
G1 F600
G4 S1
M400
G1 X115.032 Y97.991 E.88775
G4 S1
M400
G1 X115.642 Y97.856 E.04303
G4 S1
M400
G1 X115.986 Y97.998 E.02563
G4 S1
M400
G1 X127.55 Y102.788 E.86209
G4 S1
M400
G1 X128.076 Y103.124 E.04299
G4 S1
M400
G1 X133.009 Y115.032 E.88775
G4 S1
M400
G1 X133.144 Y115.642 E.04303
G4 S1
M400
G1 X128.212 Y127.55 E.88773
G4 S1
M400
G1 X127.876 Y128.076 E.04299
G4 S1
M400
G1 X115.968 Y133.009 E.88775
G4 S1
M400
G1 X115.358 Y133.144 E.04303
G4 S1
M400
G1 X103.45 Y128.212 E.88773
G4 S1
M400
G1 X102.924 Y127.876 E.04299
G4 S1
M400
G1 X97.991 Y115.968 E.88775
G4 S1
M400
G1 X97.856 Y115.358 E.04303
G4 S1
M400
G1 X102.788 Y103.45 E.88773
G4 S1
M400
G1 X103.092 Y102.974 E.0389
G4 S1
M400
M204 P1000
; stop printing object low-poly-rose-vase.stl id:0 copy 0
M106 S255
;LAYER_CHANGE
;Z:0.8
;HEIGHT:0.4
;BEFORE_LAYER_CHANGE
G92 E0
;0.8


G1 Z.8 F600
G4 S1
M400
;AFTER_LAYER_CHANGE
;0.8
M104 S210 ; set temperature
G1 E-5 F3600
G4 S1
M400
G1 X103.092 Y102.974 F600
G4 S1
M400
G1 X100.618 Y100.026
G4 S1
M400
G1 E5 F2400
G4 S1
M400
;TYPE:Skirt/Brim
G1 F600
G4 S1
M400
G1 X101.702 Y99.117 E.09744
G4 S1
M400
G1 X112.473 Y94.656 E.80296
G4 S1
M400
G1 X115.282 Y93.98 E.19899
G4 S1
M400
G1 X117.327 Y94.159 E.14139
G4 S1
M400
G1 X128.099 Y98.62 E.80303
G4 S1
M400
G1 X130.563 Y100.129 E.199
G4 S1
M400
G1 X131.883 Y101.702 E.14143
G4 S1
M400
G1 X136.344 Y112.473 E.80296
G4 S1
M400
G1 X137.02 Y115.282 E.19899
G4 S1
M400
G1 X136.841 Y117.327 E.14139
G4 S1
M400
G1 X132.38 Y128.099 E.80303
G4 S1
M400
G1 X130.871 Y130.563 E.199
G4 S1
M400
G1 X129.298 Y131.883 E.14143
G4 S1
M400
G1 X118.527 Y136.344 E.80296
G4 S1
M400
G1 X115.718 Y137.02 E.19899
G4 S1
M400
G1 X113.673 Y136.841 E.14139
G4 S1
M400
G1 X102.901 Y132.38 E.80303
G4 S1
M400
G1 X100.437 Y130.871 E.199
G4 S1
M400
G1 X99.117 Y129.298 E.14143
G4 S1
M400
G1 X94.656 Y118.527 E.80296
G4 S1
M400
G1 X93.98 Y115.718 E.19899
G4 S1
M400
G1 X94.159 Y113.673 E.14139
G4 S1
M400
G1 X98.62 Y102.901 E.80303
G4 S1
M400
G1 X100.129 Y100.437 E.199
G4 S1
M400
G1 X100.572 Y100.065 E.03984
G4 S1
M400
; printing object low-poly-rose-vase.stl id:0 copy 0
G1 E-3.5 F3600
G4 S1
M400
;WIPE_START
G1 F480
G4 S1
M400
G1 X100.618 Y100.026 E-.42969
G4 S1
M400
G1 X100.733 Y99.929 E-1.07031
G4 S1
M400
;WIPE_END
G1 X103.177 Y102.472 F600
G4 S1
M400
G1 E5 F2400
G4 S1
M400
M204 P800
;TYPE:External perimeter
G1 F600
G4 S1
M400
G1 X113.855 Y98.049 E.79604
G4 S1
M400
G1 X115.998 Y97.574 E.15118
G4 S1
M400
G1 X126.676 Y101.997 E.79604
G4 S1
M400
G1 X128.528 Y103.177 E.15125
G4 S1
M400
G1 X132.951 Y113.855 E.79604
G4 S1
M400
G1 X133.426 Y115.998 E.15118
G4 S1
M400
G1 X129.003 Y126.676 E.79604
G4 S1
M400
G1 X127.823 Y128.528 E.15125
G4 S1
M400
G1 X117.145 Y132.951 E.79604
G4 S1
M400
G1 X115.002 Y133.426 E.15118
G4 S1
M400
G1 X104.324 Y129.003 E.79604
G4 S1
M400
G1 X102.472 Y127.823 E.15125
G4 S1
M400
G1 X98.049 Y117.145 E.79604
G4 S1
M400
G1 X97.574 Y115.002 E.15118
G4 S1
M400
G1 X101.997 Y104.324 E.79604
G4 S1
M400
G1 X103.144 Y102.523 E.14706
G4 S1
M400
M204 P1000
; stop printing object low-poly-rose-vase.stl id:0 copy 0
;LAYER_CHANGE
;Z:1.2
;HEIGHT:0.4
;BEFORE_LAYER_CHANGE
G92 E0
;1.2


G1 Z0.800 F600
G4 S1
M400
;AFTER_LAYER_CHANGE
;1.2
; printing object low-poly-rose-vase.stl id:0 copy 0
M204 P800
G1 Z0.802 X103.297 Y102.101 E0.000
G4 S1
M400
G1 Z0.838 X112.708 Y98.203 E0.067
G4 S1
M400
G1 Z0.852 X116.345 Y97.396 E0.033
G4 S1
M400
G1 Z0.888 X125.756 Y101.295 E0.155
G4 S1
M400
G1 Z0.902 X128.899 Y103.297 E0.065
G4 S1
M400
G1 Z0.938 X132.797 Y112.708 E0.242
G4 S1
M400
G1 Z0.952 X133.604 Y116.345 E0.097
G4 S1
M400
G1 Z0.988 X129.705 Y125.756 E0.330
G4 S1
M400
G1 Z1.002 X127.703 Y128.899 E0.129
G4 S1
M400
G1 Z1.038 X118.292 Y132.797 E0.418
G4 S1
M400
G1 Z1.052 X114.655 Y133.604 E0.161
G4 S1
M400
G1 Z1.088 X105.244 Y129.705 E0.505
G4 S1
M400
G1 Z1.102 X102.101 Y127.703 E0.194
G4 S1
M400
G1 Z1.138 X98.203 Y118.292 E0.593
G4 S1
M400
G1 Z1.152 X97.396 Y114.655 E0.226
G4 S1
M400
G1 Z1.188 X101.295 Y105.244 E0.681
G4 S1
M400
G1 Z1.200 X103.062 Y102.47 E0.227
G4 S1
M400
M204 P1000
; stop printing object low-poly-rose-vase.stl id:0 copy 0
;LAYER_CHANGE
;Z:1.6
;HEIGHT:0.4
;BEFORE_LAYER_CHANGE
G92 E0
;1.6


G1 Z1.200 F600
G4 S1
M400
;AFTER_LAYER_CHANGE
;1.6
; printing object low-poly-rose-vase.stl id:0 copy 0
M204 P800
G1 Z1.203 X103.417 Y101.73 E.05612
G4 S1
M400
G1 Z1.234 X111.56 Y98.357 E.60706
G4 S1
M400
G1 Z1.253 X116.693 Y97.219 E.36212
G4 S1
M400
G1 Z1.284 X124.836 Y100.592 E.60706
G4 S1
M400
G1 Z1.303 X129.27 Y103.417 E.36211
G4 S1
M400
G1 Z1.334 X132.643 Y111.56 E.60706
G4 S1
M400
G1 Z1.353 X133.781 Y116.693 E.36212
G4 S1
M400
G1 Z1.384 X130.408 Y124.836 E.60706
G4 S1
M400
G1 Z1.403 X127.583 Y129.27 E.36211
G4 S1
M400
G1 Z1.434 X119.44 Y132.643 E.60706
G4 S1
M400
G1 Z1.453 X114.307 Y133.781 E.36212
G4 S1
M400
G1 Z1.484 X106.164 Y130.408 E.60706
G4 S1
M400
G1 Z1.503 X101.73 Y127.583 E.36211
G4 S1
M400
G1 Z1.534 X98.357 Y119.44 E.60706
G4 S1
M400
G1 Z1.553 X97.219 Y114.307 E.36212
G4 S1
M400
G1 Z1.584 X100.592 Y106.164 E.60706
G4 S1
M400
G1 Z1.600 X102.979 Y102.417 E.30599
G4 S1
M400
M204 P1000
; stop printing object low-poly-rose-vase.stl id:0 copy 0
;LAYER_CHANGE
;Z:2
;HEIGHT:0.4
;BEFORE_LAYER_CHANGE
G92 E0
;2


G1 Z1.600 F600
G4 S1
M400
;AFTER_LAYER_CHANGE
;2
; printing object low-poly-rose-vase.stl id:0 copy 0
M204 P800
G1 Z1.604 X103.537 Y101.359 E.08216
G4 S1
M400
G1 Z1.630 X110.413 Y98.51 E.51263
G4 S1
M400
G1 Z1.654 X117.04 Y97.041 E.46751
G4 S1
M400
G1 Z1.680 X123.917 Y99.89 E.51269
G4 S1
M400
G1 Z1.704 X129.641 Y103.537 E.46746
G4 S1
M400
G1 Z1.730 X132.49 Y110.413 E.51263
G4 S1
M400
G1 Z1.754 X133.959 Y117.04 E.46751
G4 S1
M400
G1 Z1.780 X131.11 Y123.917 E.51269
G4 S1
M400
G1 Z1.804 X127.463 Y129.641 E.46746
G4 S1
M400
G1 Z1.830 X120.587 Y132.49 E.51263
G4 S1
M400
G1 Z1.854 X113.96 Y133.959 E.46751
G4 S1
M400
G1 Z1.880 X107.083 Y131.11 E.51269
G4 S1
M400
G1 Z1.904 X101.359 Y127.463 E.46746
G4 S1
M400
G1 Z1.930 X98.51 Y120.587 E.51263
G4 S1
M400
G1 Z1.954 X97.041 Y113.96 E.46751
G4 S1
M400
G1 Z1.980 X99.89 Y107.083 E.51269
G4 S1
M400
G1 Z2.000 X102.896 Y102.365 E.3853
G4 S1
M400
M204 P1000
; stop printing object low-poly-rose-vase.stl id:0 copy 0
;LAYER_CHANGE
;Z:2.4
;HEIGHT:0.4
;BEFORE_LAYER_CHANGE
G92 E0
;2.4


G1 Z2.000 F600
G4 S1
M400
;AFTER_LAYER_CHANGE
;2.4
; printing object low-poly-rose-vase.stl id:0 copy 0
M204 P800
G1 Z2.005 X103.657 Y100.988 E.10814
G4 S1
M400
G1 Z2.027 X109.266 Y98.664 E.41817
G4 S1
M400
G1 Z2.055 X117.387 Y96.864 E.57291
G4 S1
M400
G1 Z2.077 X122.997 Y99.187 E.4182
G4 S1
M400
G1 Z2.105 X130.012 Y103.657 E.57291
G4 S1
M400
G1 Z2.127 X132.336 Y109.266 E.41817
G4 S1
M400
G1 Z2.155 X134.136 Y117.387 E.57291
G4 S1
M400
G1 Z2.177 X131.813 Y122.997 E.4182
G4 S1
M400
G1 Z2.205 X127.343 Y130.012 E.57291
G4 S1
M400
G1 Z2.227 X121.734 Y132.336 E.41817
G4 S1
M400
G1 Z2.255 X113.613 Y134.136 E.57291
G4 S1
M400
G1 Z2.277 X108.003 Y131.813 E.4182
G4 S1
M400
G1 Z2.305 X100.988 Y127.343 E.57291
G4 S1
M400
G1 Z2.327 X98.664 Y121.734 E.41817
G4 S1
M400
G1 Z2.355 X96.864 Y113.613 E.57291
G4 S1
M400
G1 Z2.377 X99.187 Y108.003 E.4182
G4 S1
M400
G1 Z2.400 X102.813 Y102.312 E.46477
G4 S1
M400
M204 P1000
; stop printing object low-poly-rose-vase.stl id:0 copy 0
;LAYER_CHANGE
;Z:2.8
;HEIGHT:0.4
;BEFORE_LAYER_CHANGE
G92 E0
;2.8


G1 Z2.400 F600
G4 S1
M400
;AFTER_LAYER_CHANGE
;2.8
; printing object low-poly-rose-vase.stl id:0 copy 0
M204 P800
G1 Z2.407 X103.777 Y100.617 E.13413
G4 S1
M400
G1 Z2.423 X108.119 Y98.818 E.32371
G4 S1
M400
G1 Z2.457 X117.735 Y96.686 E.67838
G4 S1
M400
G1 Z2.473 X122.077 Y98.485 E.32371
G4 S1
M400
G1 Z2.507 X130.383 Y103.777 E.67832
G4 S1
M400
G1 Z2.523 X132.182 Y108.119 E.32371
G4 S1
M400
G1 Z2.557 X134.314 Y117.735 E.67838
G4 S1
M400
G1 Z2.573 X132.515 Y122.077 E.32371
G4 S1
M400
G1 Z2.607 X127.223 Y130.383 E.67832
G4 S1
M400
G1 Z2.623 X122.881 Y132.182 E.32371
G4 S1
M400
G1 Z2.657 X113.265 Y134.314 E.67838
G4 S1
M400
G1 Z2.673 X108.923 Y132.515 E.32371
G4 S1
M400
G1 Z2.707 X100.617 Y127.223 E.67832
G4 S1
M400
G1 Z2.723 X98.818 Y122.881 E.32371
G4 S1
M400
G1 Z2.757 X96.686 Y113.265 E.67838
G4 S1
M400
G1 Z2.773 X98.485 Y108.923 E.32371
G4 S1
M400
G1 Z2.800 X102.73 Y102.259 E.54419
G4 S1
M400
M204 P1000
; stop printing object low-poly-rose-vase.stl id:0 copy 0
;LAYER_CHANGE
;Z:3.2
;HEIGHT:0.4
;BEFORE_LAYER_CHANGE
G92 E0
;3.2


G1 Z2.800 F600
G4 S1
M400
;AFTER_LAYER_CHANGE
;3.2
; printing object low-poly-rose-vase.stl id:0 copy 0
M204 P800
G1 Z2.808 X103.897 Y100.246 E.16007
G4 S1
M400
G1 Z2.819 X106.972 Y98.972 E.22925
G4 S1
M400
G1 Z2.858 X118.082 Y96.509 E.78378
G4 S1
M400
G1 Z2.869 X121.157 Y97.782 E.22922
G4 S1
M400
G1 Z2.908 X130.754 Y103.897 E.78377
G4 S1
M400
G1 Z2.919 X132.028 Y106.972 E.22925
G4 S1
M400
G1 Z2.958 X134.491 Y118.082 E.78378
G4 S1
M400
G1 Z2.969 X133.218 Y121.157 E.22922
G4 S1
M400
G1 Z3.008 X127.103 Y130.754 E.78377
G4 S1
M400
G1 Z3.019 X124.028 Y132.028 E.22925
G4 S1
M400
G1 Z3.058 X112.918 Y134.491 E.78378
G4 S1
M400
G1 Z3.069 X109.843 Y133.218 E.22922
G4 S1
M400
G1 Z3.108 X100.246 Y127.103 E.78377
G4 S1
M400
G1 Z3.119 X98.972 Y124.028 E.22925
G4 S1
M400
G1 Z3.158 X96.509 Y112.918 E.78378
G4 S1
M400
G1 Z3.169 X97.782 Y109.843 E.22922
G4 S1
M400
G1 Z3.200 X102.648 Y102.206 E.6237
G4 S1
M400
M204 P1000
; stop printing object low-poly-rose-vase.stl id:0 copy 0
;LAYER_CHANGE
;Z:3.6
;HEIGHT:0.4
;BEFORE_LAYER_CHANGE
G92 E0
;3.6


G1 Z3.200 F600
G4 S1
M400
;AFTER_LAYER_CHANGE
;3.6
; printing object low-poly-rose-vase.stl id:0 copy 0
M204 P800
G1 Z3.209 X104.017 Y99.874 E.18618
G4 S1
M400
G1 Z3.216 X105.825 Y99.126 E.13476
G4 S1
M400
G1 Z3.259 X118.429 Y96.331 E.88919
G4 S1
M400
G1 Z3.266 X120.237 Y97.08 E.13479
G4 S1
M400
G1 Z3.309 X131.126 Y104.017 E.88924
G4 S1
M400
G1 Z3.316 X131.874 Y105.825 E.13476
G4 S1
M400
G1 Z3.359 X134.669 Y118.429 E.88919
G4 S1
M400
G1 Z3.366 X133.92 Y120.237 E.13479
G4 S1
M400
G1 Z3.409 X126.983 Y131.126 E.88924
G4 S1
M400
G1 Z3.416 X125.175 Y131.874 E.13476
G4 S1
M400
G1 Z3.459 X112.571 Y134.669 E.88919
G4 S1
M400
G1 Z3.466 X110.763 Y133.92 E.13479
G4 S1
M400
G1 Z3.509 X99.874 Y126.983 E.88924
G4 S1
M400
G1 Z3.516 X99.126 Y125.175 E.13476
G4 S1
M400
G1 Z3.559 X96.331 Y112.571 E.88919
G4 S1
M400
G1 Z3.566 X97.08 Y110.763 E.13479
G4 S1
M400
G1 Z3.600 X102.565 Y102.154 E.70306
G4 S1
M400
M204 P1000
; stop printing object low-poly-rose-vase.stl id:0 copy 0
;LAYER_CHANGE
;Z:4
;HEIGHT:0.4
;BEFORE_LAYER_CHANGE
G92 E0
;4


G1 Z3.600 F600
G4 S1
M400
;AFTER_LAYER_CHANGE
;4
; printing object low-poly-rose-vase.stl id:0 copy 0
M204 P800
G1 Z3.610 X104.137 Y99.503 E.21216
G4 S1
M400
G1 Z3.612 X104.678 Y99.279 E.04033
G4 S1
M400
G1 Z3.660 X118.776 Y96.154 E.99457
G4 S1
M400
G1 Z3.662 X119.317 Y96.378 E.04033
G4 S1
M400
G1 Z3.710 X131.497 Y104.137 E.99465
G4 S1
M400
G1 Z3.712 X131.721 Y104.678 E.04033
G4 S1
M400
G1 Z3.760 X134.846 Y118.776 E.99457
G4 S1
M400
G1 Z3.762 X134.622 Y119.317 E.04033
G4 S1
M400
G1 Z3.810 X126.863 Y131.497 E.99465
G4 S1
M400
G1 Z3.812 X126.322 Y131.721 E.04033
G4 S1
M400
G1 Z3.860 X112.224 Y134.846 E.99457
G4 S1
M400
G1 Z3.862 X111.683 Y134.622 E.04033
G4 S1
M400
G1 Z3.910 X99.503 Y126.863 E.99465
G4 S1
M400
G1 Z3.912 X99.279 Y126.322 E.04033
G4 S1
M400
G1 Z3.960 X96.154 Y112.224 E.99457
G4 S1
M400
G1 Z3.962 X96.378 Y111.683 E.04033
G4 S1
M400
G1 Z4.000 X102.482 Y102.101 E.78249
G4 S1
M400
M204 P1000
; stop printing object low-poly-rose-vase.stl id:0 copy 0
;LAYER_CHANGE
;Z:4.4
;HEIGHT:0.4
;BEFORE_LAYER_CHANGE
G92 E0
;4.4


G1 Z4.000 F600
G4 S1
M400
;AFTER_LAYER_CHANGE
;4.4
; printing object low-poly-rose-vase.stl id:0 copy 0
M204 P800
G1 Z4.009 X103.764 Y99.711 E.18627
G4 S1
M400
G1 Z4.011 X104.267 Y99.163 E.05123
G4 S1
M400
G1 Z4.059 X118.366 Y96.037 E.99465
G4 S1
M400
G1 Z4.061 X119.109 Y96.004 E.05122
G4 S1
M400
G1 Z4.109 X131.289 Y103.764 E.99469
G4 S1
M400
G1 Z4.111 X131.837 Y104.267 E.05123
G4 S1
M400
G1 Z4.159 X134.963 Y118.366 E.99465
G4 S1
M400
G1 Z4.161 X134.996 Y119.109 E.05122
G4 S1
M400
